svg/example-07.svg

<svg class="typst-doc" viewBox="0 0 396.8503937007874 297.6377952755906" width="396.8503937007874pt" height="297.6377952755906pt" xmlns="http://www.w3.org/2000/svg" xmlns:xlink="http://www.w3.org/1999/xlink" xmlns:h5="http://www.w3.org/1999/xhtml">
    <path class="typst-shape" fill="#ffffff" fill-rule="nonzero" d="M 0 0v 297.6378 h 396.8504 v -297.6378 Z "/>
    <g>
        <g class="typst-text" transform="matrix(1 0 0 -1 139.40284885039372 153.10696110236222)">
            <use xlink:href="#gC54D2B621FF0419195A7A28C6E393D50" x="0" y="0" fill="#004682" fill-rule="nonzero"/>
            <use xlink:href="#g8E6A3B628E22AB32925D775FB0E9DDB6" x="14.351567999999999" y="0" fill="#004682" fill-rule="nonzero"/>
            <use xlink:href="#g64F76607BA3FADD1990C595C89355359" x="25.552296" y="0" fill="#004682" fill-rule="nonzero"/>
            <use xlink:href="#gFC65BAD1E444445BEEE2EE166EB0765B" x="43.949135999999996" y="0" fill="#004682" fill-rule="nonzero"/>
            <use xlink:href="#g8E6A3B628E22AB32925D775FB0E9DDB6" x="55.901999999999994" y="0" fill="#004682" fill-rule="nonzero"/>
            <use xlink:href="#gD1B36680D3CD43FEAC361F481E365EC2" x="67.102728" y="0" fill="#004682" fill-rule="nonzero"/>
            <use xlink:href="#g11960F91CA1E84502BB760B2E4A1B0AB" x="79.624776" y="0" fill="#004682" fill-rule="nonzero"/>
            <use xlink:href="#gD1B36680D3CD43FEAC361F481E365EC2" x="89.565168" y="0" fill="#004682" fill-rule="nonzero"/>
            <use xlink:href="#gA2B5B10812EC7CD9A0CB8C66CA295FDB" x="102.087216" y="0" fill="#004682" fill-rule="nonzero"/>
            <use xlink:href="#g43D46468F0C089E9554D9ED5B39EFD23" x="109.36464" y="0" fill="#004682" fill-rule="nonzero"/>
        </g>
    </g>
    <defs id="glyph">
        <symbol id="gC54D2B621FF0419195A7A28C6E393D50" overflow="visible">
            <path d="M 0 0m 8.070216 -0.20328 c 1.9718161 0 3.7810078 0.93508804 5.163312 2.74428 c -0.10163975 0.18295193 -0.44721603 0.426888 -0.67082405 0.426888 c -1.4432878 -1.5855842 -3.0898561 -2.1141121 -4.5128164 -2.1141121 c -2.3580475 0 -4.228224 2.7646081 -4.228224 5.935776 c 0 3.1508403 1.62624 5.7528243 4.045272 5.7528243 c 2.805264 0 3.7200236 -1.5855846 4.248552 -3.3337927 c 0.24393654 -0.08131218 0.6504965 -0.020327568 0.8741045 0.1016407 c -0.1016407 1.0570555 -0.2642641 2.0327997 -0.44721603 3.1508398 c -1.0367289 0.10163975 -1.9514885 0.91475964 -4.451833 0.91475964 c -3.9842877 0 -7.3384075 -2.5003443 -7.3384075 -6.972504 c 0 -1.9108319 0.83344805 -4.1469116 2.459688 -5.325936 c 1.300992 -0.935088 2.8865762 -1.280664 4.8583922 -1.280664 Z "/>
        </symbol>
        <symbol id="g8E6A3B628E22AB32925D775FB0E9DDB6" overflow="visible">
            <path d="M 0 0m 0.752136 4.207896 c 0 -2.6629682 2.1141121 -4.411176 4.838064 -4.411176 c 1.4432883 0 2.6426406 0.40656 3.476088 1.158696 c 1.0367279 0.91476005 1.3823042 2.297064 1.3823042 3.4354322 c 0 2.6629677 -1.8091917 4.6347837 -4.838064 4.6347837 c -1.6872239 0 -2.94756 -0.5895119 -3.740352 -1.504272 c -0.77246404 -0.89443207 -1.1180401 -2.114112 -1.1180401 -3.3134637 Z m 4.533144 3.9639597 c 1.3823037 0 2.3173919 -1.6465678 2.3173919 -4.431504 c 0 -2.4393601 -0.9554162 -3.0898561 -1.6872239 -3.0898561 c -1.6668963 0 -2.317392 2.500344 -2.317392 4.0046163 c 0 1.8701758 0.325248 3.5167437 1.6872241 3.5167437 Z "/>
        </symbol>
        <symbol id="g64F76607BA3FADD1990C595C89355359" overflow="visible">
            <path d="M 0 0m 4.634784 2.480016 v 4.045272 c 0 0.10163975 0 0.20327997 0 0.30491972 c 0.79279184 0.48787212 1.504272 0.6911521 1.8498478 0.6911521 c 0.8131199 0 1.4229603 -0.36590385 1.4229603 -1.5246 v -3.3947759 c 0 -1.707552 -0.32524824 -1.890504 -1.1586962 -1.951488 c -0.12196827 -0.12196803 -0.12196827 -0.569184 0 -0.691152 c 0.853776 0.020328 1.504272 0.040656 2.4800162 0.040656 c 0.9757433 0 1.6059122 -0.020328 2.4800158 -0.040656 c 0.12196827 0.121968 0.12196827 0.56918395 0 0.691152 c -0.8131199 0.060984015 -1.1586962 0.243936 -1.1586962 1.951488 v 3.1711679 c 0 0.50820017 -0.020327568 0.9147601 -0.08131218 1.1180401 c 0.77246475 0.3862319 1.6465683 0.63016796 1.9718161 0.63016796 c 0.8131199 0 1.3823042 -0.36590385 1.3823042 -1.5246 v -3.3947759 c 0 -1.707552 -0.32524776 -1.890504 -1.1586962 -1.951488 c -0.121967316 -0.12196803 -0.121967316 -0.569184 0 -0.691152 c 0.853776 0.020328 1.5042725 0.040656 2.4800167 0.040656 c 1.1180391 0 2.0124712 -0.020328 2.8865747 -0.040656 c 0.12196922 0.121968 0.12196922 0.56918395 0 0.691152 c -1.2400074 0.060984015 -1.5652542 0.243936 -1.5652542 1.951488 v 3.1711679 c 0 2.2360806 -0.81312084 3.25248 -2.561329 3.25248 c -0.75213623 0 -2.4596882 -0.8131199 -3.638712 -1.4636159 c -0.3049202 0.874104 -1.1180401 1.4636159 -2.3173923 1.4636159 c -0.7318077 0 -2.195424 -0.7724638 -3.3541198 -1.4229598 c -0.060984135 0.6098399 -0.12196827 1.0773835 -0.12196827 1.0773835 c -0.020328045 0.24393654 -0.18295193 0.3455763 -0.4675436 0.3455763 c -0.75213623 -0.2032795 -1.9718163 -0.48787212 -3.3744483 -0.67082405 c -0.04065603 -0.121967316 0 -0.52852774 0.04065597 -0.650496 c 1.1180401 -0.10163975 1.32132 -0.26426363 1.32132 -1.4229598 v -3.801336 c 0 -1.6872239 -0.22360802 -1.72788 -1.463616 -1.82952 c -0.12196797 -0.12196803 -0.12196797 -0.569184 0 -0.691152 c 0.853776 0.020328 1.707552 0.040656 2.784936 0.040656 c 0.9350879 0 1.5042722 -0.020328 2.3783762 -0.040656 c 0.12196779 0.121968 0.12196779 0.56918395 0 0.691152 c -0.853776 0.081312 -1.057056 0.14229602 -1.057056 1.82952 Z "/>
        </symbol>
        <symbol id="gFC65BAD1E444445BEEE2EE166EB0765B" overflow="visible">
            <path d="M 0 0m 1.93116 6.281352 v -8.517432 c 0 -1.6872241 -0.22360802 -1.72788 -1.4636159 -1.82952 c -0.12196803 -0.12196827 -0.12196803 -0.5691843 0 -0.6911521 c 0.85377604 0.020328045 1.707552 0.04065609 2.784936 0.04065609 c 1.077384 0 1.9108319 -0.020328045 2.784936 -0.04065609 c 0.12196827 0.12196779 0.12196827 0.5691838 0 0.6911521 c -1.2400079 0.08131194 -1.4636159 0.14229584 -1.4636159 1.82952 v 2.378376 c 0.44721603 -0.223608 0.874104 -0.345576 1.3619761 -0.345576 c 3.0898557 0 5.102328 2.0328 5.102328 5.021016 c 0 1.1383681 -0.4268875 2.398704 -1.2196798 3.1914964 c -0.71148014 0.7114792 -1.7278805 1.0163994 -2.784936 1.0163994 c -0.58951235 0 -1.6872244 -0.71148014 -2.398704 -1.3619757 h -0.12196827 c -0.04065609 0.5691843 -0.10163975 1.0163994 -0.10163975 1.0163994 c -0.020328045 0.24393654 -0.1829524 0.3455763 -0.46754408 0.3455763 c -0.752136 -0.2032795 -1.9718161 -0.48787212 -3.374448 -0.67082405 c -0.04065603 -0.121967316 0 -0.52852774 0.04065603 -0.650496 c 1.11804 -0.10163975 1.3213199 -0.26426363 1.3213199 -1.4229598 Z m 2.64264 -4.960032 v 5.203968 c 0 0.12196779 0 0.22360802 0 0.3455758 c 0.5895119 0.5285282 1.3416481 0.7927923 1.8091922 0.7927923 c 0.83344793 0 1.8091922 -1.0164003 1.8091922 -3.3947763 c 0 -1.707552 -0.6098404 -3.618384 -2.3783765 -3.618384 c -0.22360802 0 -0.7318077 0.12196803 -1.2400079 0.67082405 Z "/>
        </symbol>
        <symbol id="gD1B36680D3CD43FEAC361F481E365EC2" overflow="visible">
            <path d="M 0 0m 4.634784 2.480016 v 4.085928 c 0.8131199 0.5488558 1.6262398 0.9554157 1.9921436 0.9554157 c 0.81312037 0 1.4229598 -0.36590385 1.4229598 -1.5246 v -3.3947759 c 0 -1.707552 -0.32524776 -1.890504 -1.1586957 -1.951488 c -0.12196779 -0.12196803 -0.12196779 -0.569184 0 -0.691152 c 0.853776 0.020328 1.504272 0.040656 2.4800162 0.040656 c 1.1180401 0 2.0124722 -0.020328 2.8865757 -0.040656 c 0.12196827 0.121968 0.12196827 0.56918395 0 0.691152 c -1.2400074 0.060984015 -1.5652561 0.243936 -1.5652561 1.951488 v 3.1711679 c 0 2.2360806 -0.9554157 3.25248 -2.7036238 3.25248 c -0.8131199 0 -2.2564077 -0.89443207 -3.3744478 -1.6668959 c -0.060984135 0.71148014 -0.14229631 1.3213196 -0.14229631 1.3213196 c -0.020328045 0.24393654 -0.18295193 0.3455763 -0.4675436 0.3455763 c -0.75213623 -0.2032795 -1.9718163 -0.48787212 -3.3744483 -0.67082405 c -0.04065603 -0.121967316 0 -0.52852774 0.04065597 -0.650496 c 1.1180401 -0.10163975 1.32132 -0.26426363 1.32132 -1.4229598 v -3.801336 c 0 -1.6872239 -0.22360802 -1.72788 -1.463616 -1.82952 c -0.12196797 -0.12196803 -0.12196797 -0.569184 0 -0.691152 c 0.853776 0.020328 1.707552 0.040656 2.784936 0.040656 c 0.9350879 0 1.5042722 -0.020328 2.3783762 -0.040656 c 0.12196779 0.121968 0.12196779 0.56918395 0 0.691152 c -0.853776 0.081312 -1.057056 0.14229602 -1.057056 1.82952 Z "/>
        </symbol>
        <symbol id="g11960F91CA1E84502BB760B2E4A1B0AB" overflow="visible">
            <path d="M 0 0m 8.761368 2.622312 c -0.83344793 -0.8537761 -1.93116 -1.077384 -2.7036238 -1.077384 c -1.5855842 0 -2.561328 0.9147599 -2.561328 2.9069037 c 0 0.14229631 0.020328045 0.22360802 0.020328045 0.32524824 h 4.87872 c 0.48787212 0 0.5895119 0.3455758 0.5895119 0.63016796 c 0 1.72788 -0.67082405 3.618384 -3.65904 3.618384 c -2.1344397 0 -4.5738 -1.8905039 -4.5738 -5.000688 c 0 -1.1790237 0.426888 -2.4190319 1.300992 -3.211824 c 0.77246404 -0.691152 1.7685361 -1.0164 3.2118242 -1.0164 c 1.4026318 0 2.7849355 0.71148 3.8013358 2.195424 c 0 0.264264 -0.10163975 0.6301681 -0.3049202 0.6301681 Z m -5.163312 2.9678879 c 0.020328045 0.71148014 0.12196803 1.4839439 0.40656018 1.8905044 c 0.32524776 0.48787165 0.874104 0.6911516 1.0977116 0.6911516 c 0.54885626 0 1.300992 -0.52852774 1.300992 -2.154768 c 0 -0.12196779 0 -0.3862319 -0.040655613 -0.426888 Z "/>
        </symbol>
        <symbol id="gA2B5B10812EC7CD9A0CB8C66CA295FDB" overflow="visible">
            <path d="M 0 0m 1.280664 8.822352 c -0.28459197 0 -0.589512 -0.08131218 -0.853776 -0.3049202 v -0.58951235 c 0 -0.10163975 0.020328015 -0.12196779 0.101639986 -0.12196779 h 1.32132 c -0.04065597 -2.0531282 -0.060984015 -4.6551123 -0.060984015 -5.671512 c 0 -0.7114799 0.18295205 -1.402632 0.60984004 -1.768536 c 0.46754408 -0.38623202 1.199352 -0.569184 1.6872239 -0.569184 c 1.1180401 0 2.358048 0.569184 2.764608 1.138368 c 0 0.24393594 -0.12196779 0.36590397 -0.36590385 0.56918395 c -0.2642641 -0.20327997 -0.7724638 -0.2845919 -1.1586962 -0.2845919 c -0.44721556 0 -0.8944316 0.34557593 -0.8944316 1.3619759 c 0 1.0164001 -0.020328045 3.191496 -0.020328045 5.224296 h 2.0531278 c 0.20327997 0 0.48787212 0.08131218 0.48787212 0.2642641 v 0.63016796 c 0 0.08131218 -0.060984135 0.12196827 -0.16262388 0.12196827 h -2.378376 l 0.020328045 0.6911516 c 0.040655613 1.3619757 0.10163975 2.2970638 0.10163975 2.2970638 c 0 0.12196827 -0.060984135 0.18295193 -0.16262388 0.18295193 c -0.14229631 0 -0.89443207 -0.22360802 -1.2196801 -0.36590385 c -0.34557605 -0.14229584 -0.9350879 -0.2642641 -1.077384 -0.44721603 c -0.14229608 -0.18295193 -0.22360802 -0.7318077 -0.22360802 -2.3580475 Z "/>
        </symbol>
        <symbol id="g43D46468F0C089E9554D9ED5B39EFD23" overflow="visible">
            <path d="M 0 0m 0.975744 2.967888 c 0.08131194 -0.99607205 0.18295205 -1.9514881 0.34557605 -2.723952 c 0.3862319 -0.121968 1.6872239 -0.447216 2.825592 -0.447216 c 1.5652561 0 3.5167441 0.853776 3.5167441 2.622312 c 0 0.69115186 -0.16262436 1.2400079 -0.63016796 1.748208 c -0.5691843 0.650496 -1.4229603 1.1586957 -2.3580484 1.5652561 c -0.8131199 0.3455758 -1.0977118 0.9960718 -1.0977118 1.5855837 c 0 0.46754408 0.3862319 0.853776 0.975744 0.853776 c 0.71148014 0 1.4026322 -0.650496 1.9108319 -1.8905039 c 0.36590385 -0.060984135 0.5895119 -0.04065609 0.7927923 0.101640224 c 0 0.7318077 -0.08131218 1.504272 -0.2642641 2.1547675 c -0.650496 0.28459263 -1.1586962 0.48787212 -2.2767363 0.48787212 c -1.077384 0 -2.0937839 -0.40655994 -2.7442799 -1.057056 c -0.46754408 -0.46754408 -0.6911521 -1.0367279 -0.6911521 -1.5855837 c 0 -0.6098404 0.24393606 -1.097712 0.6301681 -1.5246 c 0.6301681 -0.6911521 1.7482079 -1.4026322 2.358048 -1.6872241 c 0.81312037 -0.3659041 1.0367284 -1.097712 1.0367284 -1.585584 c 0 -0.650496 -0.650496 -0.99607205 -1.1993523 -0.99607205 c -0.9147599 0 -1.8905039 0.93508804 -2.3173919 2.419032 c -0.325248 0.060984135 -0.487872 0.04065609 -0.81312 -0.04065585 Z "/>
        </symbol>
    </defs>
</svg>

<svg class="typst-doc" viewBox="0 0 396.8503937007874 297.6377952755906" width="396.8503937007874pt" height="297.6377952755906pt" xmlns="http://www.w3.org/2000/svg" xmlns:xlink="http://www.w3.org/1999/xlink" xmlns:h5="http://www.w3.org/1999/xhtml">
    <path class="typst-shape" fill="#ffffff" fill-rule="nonzero" d="M 0 0 L 0 297.6378 L 396.8504 297.6378 L 396.8504 0 Z "/>
    <g>
        <g transform="translate(139.40284885039372 153.10696110236222)">
            <g class="typst-text" transform="scale(1, -1)">
                <use xlink:href="#g265D1F2414ADA0F932964125C027336A" x="0" fill="#004682" fill-rule="nonzero"/>
                <use xlink:href="#g8FD774FD5E688BD765593C7F76B0EA3F" x="14.351567999999999" fill="#004682" fill-rule="nonzero"/>
                <use xlink:href="#g7BE624421161D1194D629F7D6654B077" x="25.552296" fill="#004682" fill-rule="nonzero"/>
                <use xlink:href="#gED196A47E1EFD0559BBF3B165DDFE129" x="43.949135999999996" fill="#004682" fill-rule="nonzero"/>
                <use xlink:href="#g8FD774FD5E688BD765593C7F76B0EA3F" x="55.901999999999994" fill="#004682" fill-rule="nonzero"/>
                <use xlink:href="#g302D624F9C4A7FF1BBE16BE5A7F3A61" x="67.102728" fill="#004682" fill-rule="nonzero"/>
                <use xlink:href="#g957E5F8AD780C1C556A08CD74E197627" x="79.624776" fill="#004682" fill-rule="nonzero"/>
                <use xlink:href="#g302D624F9C4A7FF1BBE16BE5A7F3A61" x="89.565168" fill="#004682" fill-rule="nonzero"/>
                <use xlink:href="#g542758C38DEE340EACB91D7836136AC6" x="102.087216" fill="#004682" fill-rule="nonzero"/>
                <use xlink:href="#gBAD09851237B564BEA35BD43C3151474" x="109.36464" fill="#004682" fill-rule="nonzero"/>
            </g>
        </g>
    </g>
    <defs id="glyph">
        <symbol id="g265D1F2414ADA0F932964125C027336A" overflow="visible">
            <path d="M 8.070216 -0.20328 C 10.042032 -0.20328 11.851224 0.731808 13.233528 2.5410001 C 13.131888 2.723952 12.786312 2.967888 12.562704 2.967888 C 11.119416 1.382304 9.472848 0.853776 8.049888 0.853776 C 5.69184 0.853776 3.821664 3.6183841 3.821664 6.789552 C 3.821664 9.9403925 5.447904 12.5423765 7.866936 12.5423765 C 10.6722 12.5423765 11.58696 10.956792 12.115488 9.208584 C 12.359425 9.127272 12.765985 9.188256 12.989593 9.310225 C 12.887952 10.36728 12.725328 11.343024 12.5423765 12.461064 C 11.505648 12.562704 10.590888 13.375824 8.090544 13.375824 C 4.106256 13.375824 0.752136 10.87548 0.752136 6.40332 C 0.752136 4.492488 1.585584 2.256408 3.211824 1.077384 C 4.512816 0.142296 6.0984 -0.20328 8.070216 -0.20328 Z "/>
        </symbol>
        <symbol id="g8FD774FD5E688BD765593C7F76B0EA3F" overflow="visible">
            <path d="M 0.752136 4.207896 C 0.752136 1.5449281 2.8662481 -0.20328 5.5902 -0.20328 C 7.0334883 -0.20328 8.232841 0.20328 9.066288 0.955416 C 10.103016 1.8701761 10.448592 3.25248 10.448592 4.390848 C 10.448592 7.053816 8.6394005 9.025632 5.610528 9.025632 C 3.923304 9.025632 2.662968 8.43612 1.8701761 7.52136 C 1.097712 6.626928 0.752136 5.407248 0.752136 4.207896 Z M 5.28528 8.171856 C 6.667584 8.171856 7.602672 6.525288 7.602672 3.7403522 C 7.602672 1.300992 6.647256 0.650496 5.915448 0.650496 C 4.248552 0.650496 3.598056 3.15084 3.598056 4.6551123 C 3.598056 6.525288 3.923304 8.171856 5.28528 8.171856 Z "/>
        </symbol>
        <symbol id="g7BE624421161D1194D629F7D6654B077" overflow="visible">
            <path d="M 4.634784 2.480016 L 4.634784 6.525288 C 4.634784 6.626928 4.634784 6.728568 4.634784 6.830208 C 5.427576 7.31808 6.139056 7.52136 6.484632 7.52136 C 7.297752 7.52136 7.9075923 7.155456 7.9075923 5.99676 L 7.9075923 2.601984 C 7.9075923 0.894432 7.582344 0.71148 6.748896 0.650496 C 6.626928 0.528528 6.626928 0.081312 6.748896 -0.040656 C 7.602672 -0.020328 8.253168 0 9.228912 0 C 10.204656 0 10.834825 -0.020328 11.708928 -0.040656 C 11.830896 0.081312 11.830896 0.528528 11.708928 0.650496 C 10.895808 0.71148 10.550232 0.894432 10.550232 2.601984 L 10.550232 5.773152 C 10.550232 6.281352 10.529904 6.687912 10.46892 6.891192 C 11.2413845 7.277424 12.115488 7.52136 12.440736 7.52136 C 13.253856 7.52136 13.82304 7.155456 13.82304 5.99676 L 13.82304 2.601984 C 13.82304 0.894432 13.497792 0.71148 12.664344 0.650496 C 12.5423765 0.528528 12.5423765 0.081312 12.664344 -0.040656 C 13.51812 -0.020328 14.168616 0 15.144361 0 C 16.2624 0 17.156832 -0.020328 18.030935 -0.040656 C 18.152905 0.081312 18.152905 0.528528 18.030935 0.650496 C 16.790928 0.71148 16.465681 0.894432 16.465681 2.601984 L 16.465681 5.773152 C 16.465681 8.0092325 15.65256 9.025632 13.904352 9.025632 C 13.152216 9.025632 11.444664 8.212512 10.26564 7.562016 C 9.96072 8.43612 9.1476 9.025632 7.948248 9.025632 C 7.21644 9.025632 5.752824 8.253168 4.594128 7.602672 C 4.533144 8.212512 4.47216 8.680056 4.47216 8.680056 C 4.451832 8.923992 4.289208 9.025632 4.0046163 9.025632 C 3.25248 8.822352 2.0328 8.53776 0.630168 8.354808 C 0.589512 8.232841 0.630168 7.82628 0.670824 7.704312 C 1.788864 7.602672 1.992144 7.440048 1.992144 6.281352 L 1.992144 2.480016 C 1.992144 0.792792 1.768536 0.752136 0.528528 0.650496 C 0.40656 0.528528 0.40656 0.081312 0.528528 -0.040656 C 1.382304 -0.020328 2.23608 0 3.313464 0 C 4.248552 0 4.817736 -0.020328 5.69184 -0.040656 C 5.813808 0.081312 5.813808 0.528528 5.69184 0.650496 C 4.838064 0.731808 4.634784 0.792792 4.634784 2.480016 Z "/>
        </symbol>
        <symbol id="gED196A47E1EFD0559BBF3B165DDFE129" overflow="visible">
            <path d="M 1.93116 6.281352 L 1.93116 -2.23608 C 1.93116 -3.923304 1.707552 -3.96396 0.46754402 -4.0656 C 0.345576 -4.187568 0.345576 -4.634784 0.46754402 -4.756752 C 1.32132 -4.736424 2.175096 -4.716096 3.25248 -4.716096 C 4.329864 -4.716096 5.163312 -4.736424 6.037416 -4.756752 C 6.1593843 -4.634784 6.1593843 -4.187568 6.037416 -4.0656 C 4.797408 -3.984288 4.5738 -3.923304 4.5738 -2.23608 L 4.5738 0.142296 C 5.021016 -0.081312 5.447904 -0.20328 5.935776 -0.20328 C 9.025632 -0.20328 11.038104 1.82952 11.038104 4.817736 C 11.038104 5.9561043 10.611217 7.21644 9.818424 8.0092325 C 9.106944 8.720712 8.090544 9.025632 7.0334883 9.025632 C 6.443976 9.025632 5.346264 8.314152 4.634784 7.663656 L 4.512816 7.663656 C 4.47216 8.232841 4.411176 8.680056 4.411176 8.680056 C 4.390848 8.923992 4.228224 9.025632 3.9436321 9.025632 C 3.1914961 8.822352 1.9718161 8.53776 0.569184 8.354808 C 0.528528 8.232841 0.569184 7.82628 0.60984004 7.704312 C 1.72788 7.602672 1.93116 7.440048 1.93116 6.281352 Z M 4.5738 1.32132 L 4.5738 6.525288 C 4.5738 6.647256 4.5738 6.748896 4.5738 6.870864 C 5.163312 7.399392 5.915448 7.663656 6.3829923 7.663656 C 7.21644 7.663656 8.192184 6.647256 8.192184 4.26888 C 8.192184 2.561328 7.582344 0.650496 5.813808 0.650496 C 5.5902 0.650496 5.0820003 0.77246404 4.5738 1.32132 Z "/>
        </symbol>
        <symbol id="g302D624F9C4A7FF1BBE16BE5A7F3A61" overflow="visible">
            <path d="M 4.634784 2.480016 L 4.634784 6.565944 C 5.447904 7.1148 6.261024 7.52136 6.626928 7.52136 C 7.440048 7.52136 8.049888 7.155456 8.049888 5.99676 L 8.049888 2.601984 C 8.049888 0.894432 7.72464 0.71148 6.891192 0.650496 C 6.769224 0.528528 6.769224 0.081312 6.891192 -0.040656 C 7.744968 -0.020328 8.395464 0 9.371208 0 C 10.489248 0 11.38368 -0.020328 12.257784 -0.040656 C 12.379752 0.081312 12.379752 0.528528 12.257784 0.650496 C 11.0177765 0.71148 10.692528 0.894432 10.692528 2.601984 L 10.692528 5.773152 C 10.692528 8.0092325 9.737112 9.025632 7.988904 9.025632 C 7.175784 9.025632 5.7324963 8.1312 4.614456 7.358736 C 4.553472 8.070216 4.47216 8.680056 4.47216 8.680056 C 4.451832 8.923992 4.289208 9.025632 4.0046163 9.025632 C 3.25248 8.822352 2.0328 8.53776 0.630168 8.354808 C 0.589512 8.232841 0.630168 7.82628 0.670824 7.704312 C 1.788864 7.602672 1.992144 7.440048 1.992144 6.281352 L 1.992144 2.480016 C 1.992144 0.792792 1.768536 0.752136 0.528528 0.650496 C 0.40656 0.528528 0.40656 0.081312 0.528528 -0.040656 C 1.382304 -0.020328 2.23608 0 3.313464 0 C 4.248552 0 4.817736 -0.020328 5.69184 -0.040656 C 5.813808 0.081312 5.813808 0.528528 5.69184 0.650496 C 4.838064 0.731808 4.634784 0.792792 4.634784 2.480016 Z "/>
        </symbol>
        <symbol id="g957E5F8AD780C1C556A08CD74E197627" overflow="visible">
            <path d="M 8.761368 2.622312 C 7.92792 1.768536 6.830208 1.5449281 6.057744 1.5449281 C 4.47216 1.5449281 3.496416 2.459688 3.496416 4.451832 C 3.496416 4.594128 3.5167441 4.67544 3.5167441 4.77708 L 8.395464 4.77708 C 8.883336 4.77708 8.984976 5.122656 8.984976 5.407248 C 8.984976 7.135128 8.314152 9.025632 5.325936 9.025632 C 3.1914961 9.025632 0.752136 7.135128 0.752136 4.024944 C 0.752136 2.84592 1.179024 1.605912 2.053128 0.81312 C 2.825592 0.121968 3.821664 -0.20328 5.264952 -0.20328 C 6.667584 -0.20328 8.049888 0.5082 9.066288 1.992144 C 9.066288 2.256408 8.964648 2.622312 8.761368 2.622312 Z M 3.598056 5.5902 C 3.6183841 6.30168 3.720024 7.074144 4.0046163 7.4807043 C 4.329864 7.968576 4.8787203 8.171856 5.102328 8.171856 C 5.651184 8.171856 6.40332 7.643328 6.40332 6.017088 C 6.40332 5.89512 6.40332 5.630856 6.362664 5.5902 Z "/>
        </symbol>
        <symbol id="g542758C38DEE340EACB91D7836136AC6" overflow="visible">
            <path d="M 1.280664 8.822352 C 0.996072 8.822352 0.691152 8.74104 0.426888 8.517432 L 0.426888 7.92792 C 0.426888 7.82628 0.447216 7.805952 0.528528 7.805952 L 1.849848 7.805952 C 1.8091921 5.752824 1.788864 3.15084 1.788864 2.13444 C 1.788864 1.42296 1.9718161 0.731808 2.398704 0.365904 C 2.8662481 -0.020328 3.598056 -0.20328 4.085928 -0.20328 C 5.203968 -0.20328 6.443976 0.365904 6.850536 0.93508804 C 6.850536 1.179024 6.728568 1.300992 6.484632 1.504272 C 6.220368 1.300992 5.712168 1.2196801 5.325936 1.2196801 C 4.8787203 1.2196801 4.4315042 1.565256 4.4315042 2.581656 C 4.4315042 3.598056 4.411176 5.773152 4.411176 7.805952 L 6.464304 7.805952 C 6.667584 7.805952 6.952176 7.8872643 6.952176 8.070216 L 6.952176 8.700384 C 6.952176 8.781696 6.891192 8.822352 6.789552 8.822352 L 4.411176 8.822352 L 4.4315042 9.513504 C 4.47216 10.87548 4.533144 11.810568 4.533144 11.810568 C 4.533144 11.932536 4.47216 11.99352 4.37052 11.99352 C 4.228224 11.99352 3.476088 11.769912 3.15084 11.627616 C 2.805264 11.48532 2.2157521 11.363352 2.073456 11.1804 C 1.93116 10.997448 1.849848 10.448592 1.849848 8.822352 Z "/>
        </symbol>
        <symbol id="gBAD09851237B564BEA35BD43C3151474" overflow="visible">
            <path d="M 0.975744 2.967888 C 1.057056 1.9718161 1.158696 1.0164 1.32132 0.243936 C 1.707552 0.121968 3.008544 -0.20328 4.146912 -0.20328 C 5.712168 -0.20328 7.663656 0.650496 7.663656 2.419032 C 7.663656 3.110184 7.501032 3.65904 7.0334883 4.16724 C 6.464304 4.817736 5.610528 5.325936 4.67544 5.7324963 C 3.86232 6.078072 3.577728 6.728568 3.577728 7.31808 C 3.577728 7.785624 3.96396 8.171856 4.553472 8.171856 C 5.264952 8.171856 5.9561043 7.52136 6.464304 6.281352 C 6.830208 6.220368 7.053816 6.240696 7.2570963 6.3829923 C 7.2570963 7.1148 7.175784 7.8872643 6.992832 8.53776 C 6.342336 8.822352 5.834136 9.025632 4.716096 9.025632 C 3.638712 9.025632 2.622312 8.619072 1.9718161 7.968576 C 1.504272 7.501032 1.280664 6.931848 1.280664 6.3829923 C 1.280664 5.773152 1.5246 5.28528 1.910832 4.8583922 C 2.5410001 4.16724 3.65904 3.45576 4.26888 3.171168 C 5.0820003 2.805264 5.3056083 2.073456 5.3056083 1.585584 C 5.3056083 0.93508804 4.6551123 0.589512 4.106256 0.589512 C 3.1914961 0.589512 2.2157521 1.5246 1.788864 3.008544 C 1.463616 3.069528 1.300992 3.0492 0.975744 2.967888 Z "/>
        </symbol>
    </defs>
</svg>
